proprietary/assets/icons/gebouwen/horecaketens.svg

<svg enable-background="new 0 0 64 64" height="64" viewBox="0 0 64 64" width="64" xmlns="http://www.w3.org/2000/svg"><path d="m0 0h64v64h-64z" fill="none"/><path d="m10 33.2v-1.2c0-1 .4-2 1.2-2.7l10-9.4-3.9-3.7c-.2-.2-.6-.2-.9 0l-15 14.2c-.3.2-.4.5-.4.9v.9c0 .4.3.6.6.6h2.5v13.2h9.9v-10h-1.2c-1.5 0-2.8-1.3-2.8-2.8zm42 0v-1.2c0-.5-.2-.9-.5-1.2l-19-17.9c-.3-.3-.8-.3-1.1 0l-18.9 17.9c-.3.3-.5.7-.5 1.2v1.2c0 .4.4.8.8.8h3.2v16.9h32v-16.9h3.2c.4 0 .8-.4.8-.8zm-21.8-1.1c.4 5.4.7 12.6.7 12.9 0 .6-.8 1.1-1.9 1.1s-1.9-.5-1.9-1.1c0-.3.3-7.4.7-12.9-1.2-.4-2-1.3-2-2.2l.4-5.6c0-.3.3-.6.6-.6s.6.2.6.6l.3 5.1c0 .1.1.2.2.2s.2-.1.2-.2l.3-5c0-.3.3-.6.6-.6s.6.2.6.6l.3 5c0 .1.1.2.2.2s.2-.1.2-.2l.3-5c0-.3.3-.6.6-.6s.6.2.6.6l.4 5.6c0 .9-.8 1.7-2 2.1zm7.3 2.5c-.2.3-.6.4-.9.4h-.1c1 5.9.9 9.4-.1 10.6-.4.5-.9.6-1.3.6-.4 0-.8-.2-1.1-.4-.2-.2-.2-.3-.2-.5v-20.7c0-.3.2-.6.5-.7s.6-.1.9.2c1.8 1.8 2.5 6.8 2.7 9.6 0 .3-.1.6-.4.9zm25.1-4.3-15-14.2c-.2-.2-.6-.2-.9 0l-3.9 3.7 10 9.5c.8.7 1.2 1.7 1.2 2.7v1.2c0 1.5-1.3 2.8-2.8 2.8h-1.2v10h9.8v-13.2h2.5c.3 0 .6-.3.6-.6v-.9c.1-.4-.1-.7-.3-1z"/></svg>

<?xml version="1.0" encoding="utf-8"?>
<!-- Generator: Adobe Illustrator 22.1.0, SVG Export Plug-In . SVG Version: 6.00 Build 0)  -->
<!DOCTYPE svg PUBLIC "-//W3C//DTD SVG 1.1//EN" "http://www.w3.org/Graphics/SVG/1.1/DTD/svg11.dtd">
<svg version="1.1" xmlns="http://www.w3.org/2000/svg" xmlns:xlink="http://www.w3.org/1999/xlink" x="0px" y="0px" width="64px"
	 height="64px" viewBox="0 0 64 64" style="enable-background:new 0 0 64 64;" xml:space="preserve">
<style type="text/css">
	.st0{fill:none;}
</style>
<g id="Box">
	<rect class="st0" width="64" height="64"/>
</g>
<g id="Icon">
	<g>
		<g>
			<path d="M10,33.2V32c0-1,0.4-2,1.2-2.7l10-9.4l-3.9-3.7c-0.2-0.2-0.6-0.2-0.9,0l-15,14.2C1.1,30.6,1,30.9,1,31.3v0.9
				c0,0.4,0.3,0.6,0.6,0.6h2.5V46H14V36h-1.2C11.3,36,10,34.7,10,33.2z M52,33.2V32c0-0.5-0.2-0.9-0.5-1.2L32.5,12.9
				c-0.3-0.3-0.8-0.3-1.1,0L12.5,30.8C12.2,31.1,12,31.5,12,32v1.2c0,0.4,0.4,0.8,0.8,0.8H16v16.9h32V34h3.2
				C51.6,34,52,33.6,52,33.2z M30.2,32.1c0.4,5.4,0.7,12.6,0.7,12.9c0,0.6-0.8,1.1-1.9,1.1c-1.1,0-1.9-0.5-1.9-1.1
				c0-0.3,0.3-7.4,0.7-12.9c-1.2-0.4-2-1.3-2-2.2l0.4-5.6c0-0.3,0.3-0.6,0.6-0.6c0.3,0,0.6,0.2,0.6,0.6l0.3,5.1
				c0,0.1,0.1,0.2,0.2,0.2c0.1,0,0.2-0.1,0.2-0.2l0.3-5c0-0.3,0.3-0.6,0.6-0.6c0.3,0,0.6,0.2,0.6,0.6l0.3,5c0,0.1,0.1,0.2,0.2,0.2
				c0.1,0,0.2-0.1,0.2-0.2l0.3-5c0-0.3,0.3-0.6,0.6-0.6c0.3,0,0.6,0.2,0.6,0.6l0.4,5.6C32.2,30.9,31.4,31.7,30.2,32.1z M37.5,34.6
				c-0.2,0.3-0.6,0.4-0.9,0.4l-0.1,0c1,5.9,0.9,9.4-0.1,10.6c-0.4,0.5-0.9,0.6-1.3,0.6h0c-0.4,0-0.8-0.2-1.1-0.4
				c-0.2-0.2-0.2-0.3-0.2-0.5V24.6c0-0.3,0.2-0.6,0.5-0.7c0.3-0.1,0.6-0.1,0.9,0.2c1.8,1.8,2.5,6.8,2.7,9.6
				C37.9,34,37.8,34.3,37.5,34.6z M62.6,30.3l-15-14.2c-0.2-0.2-0.6-0.2-0.9,0l-3.9,3.7l10,9.5C53.6,30,54,31,54,32v1.2
				c0,1.5-1.3,2.8-2.8,2.8H50v10h9.8V32.8h2.5c0.3,0,0.6-0.3,0.6-0.6v-0.9C63,30.9,62.8,30.6,62.6,30.3z"/>
		</g>
	</g>
</g>
</svg>
